svgs/sharp-thin/panel-ews.svg

<svg xmlns="http://www.w3.org/2000/svg" viewBox="0 0 512 512"><!--! Font Awesome Pro 6.6.0 by @fontawesome - https://fontawesome.com License - https://fontawesome.com/license (Commercial License) Copyright 2024 Fonticons, Inc. --><path d="M16 16l480 0 0 480L16 496l0-192c30.9 0 56 25.1 56 56l0 32c0 30.9 25.1 56 56 56s56-25.1 56-56l0-40 40 0 16 0 0-16 0-96 0-16-16 0-96 0-16 0 0 16 0 96 0 16 16 0 40 0 0 40c0 22.1-17.9 40-40 40s-40-17.9-40-40l0-32c0-39.8-32.2-72-72-72L16 16zM0 296L0 496l0 16 16 0 480 0 16 0 0-16 0-480 0-16L496 0 16 0 0 0 0 16 0 296zM96 80l-8 0 0 16 8 0 128 0 8 0 0-16-8 0L96 80zm192 0l-8 0 0 16 8 0 128 0 8 0 0-16-8 0L288 80zM96 144l-8 0 0 16 8 0 128 0 8 0 0-16-8 0L96 144zm192 0l-8 0 0 16 8 0 128 0 8 0 0-16-8 0-128 0zM224 336l-48 0-48 0 0-96 96 0 0 96zm80-96l96 0 0 192-96 0 0-192zm-16-16l0 16 0 192 0 16 16 0 96 0 16 0 0-16 0-192 0-16-16 0-96 0-16 0z"/></svg>

<svg xmlns="http://www.w3.org/2000/svg" viewBox="0 0 512 512"><!--! Font Awesome Pro 6.5.2 by @fontawesome - https://fontawesome.com License - https://fontawesome.com/license (Commercial License) Copyright 2024 Fonticons, Inc. --><path d="M16 16H496V496H16V304c30.9 0 56 25.1 56 56v32c0 30.9 25.1 56 56 56s56-25.1 56-56V352h40 16V336 240 224H224 128 112v16 96 16h16 40v40c0 22.1-17.9 40-40 40s-40-17.9-40-40V360c0-39.8-32.2-72-72-72V16zM0 296V496v16H16 496h16V496 16 0H496 16 0V16 296zM96 80H88V96h8H224h8V80h-8H96zm192 0h-8V96h8H416h8V80h-8H288zM96 144H88v16h8H224h8V144h-8H96zm192 0h-8v16h8H416h8V144h-8H288zM224 336H176 128V240h96v96zm80-96h96V432H304V240zm-16-16v16V432v16h16 96 16V432 240 224H400 304 288z"/></svg>
